build/img/people-w.svg

<svg width="32" height="32" viewBox="0 0 32 32" fill="none" xmlns="http://www.w3.org/2000/svg">
<path d="M28.5547 25.5023C28.8947 25.0283 29.0958 24.4466 29.0958 23.8181V20.0625C29.0958 19.7173 28.8184 19.4375 28.4763 19.4375H25.7076C24.4276 19.4375 23.3863 20.488 23.3863 21.7793V23.8181C23.3863 24.4462 23.5872 25.0274 23.9268 25.5013C23.5033 25.5706 23.0958 25.7075 22.7158 25.9079C21.8551 24.6121 20.4448 23.7185 18.8243 23.5678C18.818 23.5659 18.8115 23.5646 18.8052 23.5631C19.385 22.9099 19.7384 22.0481 19.7384 21.1044V16C19.7384 15.6548 19.461 15.375 19.1189 15.375H15.3558C13.7389 15.375 12.4235 16.7021 12.4235 18.3333V21.1043C12.4235 22.0481 12.7769 22.9098 13.3567 23.563C13.3503 23.5646 13.3439 23.5659 13.3376 23.5677C11.7168 23.7184 10.3066 24.6122 9.44586 25.9081C9.06573 25.7078 8.65821 25.5708 8.23489 25.5015C8.57451 25.0276 8.77554 24.4463 8.77554 23.8181V20.0625C8.77554 19.7173 8.49812 19.4375 8.15602 19.4375H5.38726C4.10733 19.4375 3.06603 20.488 3.06603 21.7793V23.8181C3.06603 24.4466 3.26719 25.0283 3.60719 25.5023C1.68958 25.8185 0.221191 27.5009 0.221191 29.5235V31.375C0.221191 31.7202 0.498613 32 0.840713 32H31.3212C31.6633 32 31.9407 31.7202 31.9407 31.375V29.5235C31.9407 27.5009 30.4723 25.8185 28.5547 25.5023ZM4.30508 21.7793C4.30508 21.1773 4.79053 20.6875 5.38726 20.6875H7.5365V21.4487C7.5365 21.8219 7.23554 22.1256 6.86562 22.1256H4.30508V21.7793ZM4.30508 23.3755H6.86562C7.10166 23.3755 7.32766 23.3318 7.5365 23.2524V23.8181C7.5365 24.7169 6.81172 25.4481 5.92079 25.4481C5.02985 25.4481 4.30508 24.7169 4.30508 23.8181V23.3755ZM6.32019 26.6981L5.92079 27.1011L5.52138 26.6981H6.32019ZM8.55698 28.8585V30.75H1.46023V29.5235C1.46023 28.1216 2.47767 26.9555 3.80655 26.7359L5.48272 28.4269C5.59895 28.5441 5.75649 28.61 5.92079 28.61C6.08509 28.61 6.24263 28.5441 6.35885 28.4269L8.03552 26.7353C8.33166 26.784 8.61645 26.8803 8.88185 27.0211C8.67196 27.594 8.55698 28.213 8.55698 28.8585ZM16.081 23.5442C14.7475 23.5442 13.6626 22.4497 13.6626 21.1044V20.2783H17.3651C17.7756 20.2783 18.1622 20.1725 18.4994 19.9866V21.1044C18.4994 22.4497 17.4145 23.5442 16.081 23.5442ZM17.1609 24.7941L16.0809 25.8836L15.001 24.7941H17.1609ZM13.6625 18.3333H13.6625C13.6625 17.3913 14.4221 16.625 15.3558 16.625H18.4994V17.884C18.4994 18.515 17.9905 19.0284 17.365 19.0284H13.6625V18.3333ZM22.3658 30.75H21.161H11.0009H9.79608V29.5H13.83C14.1721 29.5 14.4496 29.2202 14.4496 28.875C14.4496 28.5298 14.1721 28.25 13.83 28.25H9.84137C10.1069 26.4737 11.5163 25.0715 13.2858 24.8316L15.6429 27.2095C15.7639 27.3315 15.9224 27.3925 16.0809 27.3925C16.2395 27.3925 16.398 27.3315 16.519 27.2095L18.876 24.8316C20.8434 25.0983 22.3658 26.8019 22.3658 28.8585V30.75ZM24.6254 21.7793C24.6254 21.1773 25.1108 20.6875 25.7076 20.6875H27.8568V21.4487C27.8568 21.8219 27.5558 22.1256 27.1859 22.1256H24.6254V21.7793ZM24.6254 23.3755H27.1859C27.422 23.3755 27.648 23.3318 27.8568 23.2524V23.8181C27.8568 24.7169 27.132 25.4481 26.2411 25.4481C25.3502 25.4481 24.6254 24.7169 24.6254 23.8181V23.3755ZM26.6405 26.6981L26.2411 27.1011L25.8417 26.6981H26.6405ZM23.6048 30.75V28.8585C23.6048 28.2129 23.4899 27.594 23.2799 27.021C23.5452 26.88 23.8299 26.7838 24.1261 26.7352L25.803 28.4269C25.9192 28.5441 26.0767 28.61 26.241 28.61C26.4053 28.61 26.5629 28.5441 26.6791 28.4269L28.3553 26.7359C29.6841 26.9556 30.7016 28.1216 30.7016 29.5235V30.75H23.6048Z" fill="#ffffff"/>
<path d="M19.1336 4.08356C18.8917 3.8395 18.4995 3.8395 18.2575 4.08356L15.2175 7.1505L13.9033 5.82469C13.6613 5.58056 13.2691 5.58056 13.0271 5.82462C12.7852 6.06869 12.7852 6.46444 13.0271 6.70856L14.7794 8.47632C14.8956 8.5935 15.0532 8.65938 15.2175 8.65938C15.3818 8.65938 15.5393 8.5935 15.6555 8.47632L19.1336 4.96744C19.3756 4.72337 19.3756 4.32762 19.1336 4.08356Z" fill="#ffffff"/>
<path d="M18.6144 0.541883C18.3019 0.40132 17.9356 0.542883 17.7962 0.858133C17.6568 1.17338 17.7972 1.54295 18.1097 1.68351C19.9063 2.49182 21.0671 4.29601 21.0671 6.27989C21.0671 9.05339 18.8305 11.3098 16.0813 11.3098C13.3321 11.3098 11.0954 9.05339 11.0954 6.27989C11.0954 4.30626 12.2479 2.50582 14.0315 1.69313C14.3433 1.55107 14.482 1.18082 14.3411 0.866258C14.2003 0.551633 13.8331 0.41182 13.5215 0.553883C11.2951 1.56838 9.85645 3.81595 9.85645 6.27983C9.85638 9.74264 12.6489 12.5598 16.0813 12.5598C19.5137 12.5598 22.3062 9.74264 22.3062 6.27989C22.3062 3.8032 20.857 1.55088 18.6144 0.541883Z" fill="#ffffff"/>
<path d="M16.1031 0H16.0809C15.7388 0 15.4614 0.279813 15.4614 0.625001C15.4614 0.970189 15.7388 1.25 16.0809 1.25H16.0973C16.0983 1.25 16.0992 1.25 16.1003 1.25C16.4411 1.25 16.7181 0.972126 16.7197 0.627938C16.7213 0.28275 16.4453 0.001625 16.1031 0Z" fill="#ffffff"/>
<path d="M16.5189 28.433C16.4037 28.3168 16.2439 28.2499 16.0809 28.2499C15.918 28.2499 15.7582 28.3168 15.6429 28.433C15.5277 28.5493 15.4614 28.7105 15.4614 28.8749C15.4614 29.0393 15.5277 29.2005 15.6429 29.3168C15.7582 29.433 15.918 29.4999 16.0809 29.4999C16.2439 29.4999 16.4037 29.433 16.5189 29.3168C16.6341 29.2005 16.7005 29.0393 16.7005 28.8749C16.7005 28.7105 16.6342 28.5493 16.5189 28.433Z" fill="#ffffff"/>
</svg>

<svg width="32" height="32" fill="none" xmlns="http://www.w3.org/2000/svg"><path d="M28.555 25.502a2.88 2.88 0 00.54-1.684v-3.756a.622.622 0 00-.619-.625h-2.768c-1.28 0-2.322 1.051-2.322 2.342v2.04c0 .627.201 1.208.54 1.682-.423.07-.83.206-1.21.407a5.263 5.263 0 00-3.892-2.34l-.019-.005c.58-.653.933-1.515.933-2.459V16a.622.622 0 00-.62-.625h-3.762c-1.617 0-2.932 1.327-2.932 2.958v2.771c0 .944.353 1.806.933 2.459l-.02.005a5.263 5.263 0 00-3.891 2.34 3.97 3.97 0 00-1.211-.407 2.88 2.88 0 00.54-1.683v-3.756a.622.622 0 00-.619-.625H5.387c-1.28 0-2.321 1.051-2.321 2.342v2.04c0 .628.201 1.21.541 1.683a4.07 4.07 0 00-3.386 4.021v1.852c0 .345.278.625.62.625h30.48c.342 0 .62-.28.62-.625v-1.852a4.07 4.07 0 00-3.386-4.02zM4.305 21.78c0-.602.486-1.091 1.082-1.091h2.15v.76a.675.675 0 01-.671.678h-2.56v-.347zm0 1.596h2.56c.237 0 .463-.043.671-.123v.566c0 .899-.724 1.63-1.615 1.63s-1.616-.731-1.616-1.63v-.443zm2.015 3.323l-.4.403-.399-.403h.8zm2.237 2.16v1.892H1.46v-1.227a2.822 2.822 0 012.347-2.787l1.676 1.69a.617.617 0 00.876 0l1.677-1.69c.296.048.58.144.846.285a5.331 5.331 0 00-.325 1.837zm7.524-5.314c-1.333 0-2.418-1.094-2.418-2.44v-.826h3.702c.41 0 .797-.105 1.134-.291v1.117c0 1.346-1.084 2.44-2.418 2.44zm1.08 1.25l-1.08 1.09-1.08-1.09h2.16zm-3.499-6.46c0-.943.76-1.709 1.694-1.709h3.143v1.259a1.14 1.14 0 01-1.134 1.144h-3.702v-.695zm8.704 12.416H9.796V29.5h4.034c.342 0 .62-.28.62-.625a.622.622 0 00-.62-.625H9.841c.266-1.776 1.675-3.178 3.445-3.418l2.357 2.377a.615.615 0 00.876 0l2.357-2.377c1.967.266 3.49 1.97 3.49 4.026v1.892zm2.26-8.97c0-.603.485-1.093 1.082-1.093h2.149v.762a.675.675 0 01-.671.677h-2.56v-.347zm0 1.595h2.56c.236 0 .462-.043.67-.123v.566c0 .899-.724 1.63-1.615 1.63-.89 0-1.616-.731-1.616-1.63v-.443zm2.014 3.323l-.399.403-.4-.403h.8zm-3.035 4.052v-1.892a5.33 5.33 0 00-.325-1.837c.265-.141.55-.237.846-.286l1.677 1.692a.617.617 0 00.876 0l1.676-1.691a2.822 2.822 0 012.347 2.787v1.227h-7.097zM19.134 4.084a.616.616 0 00-.877 0l-3.04 3.067-1.314-1.326a.616.616 0 00-.876 0 .63.63 0 000 .884l1.752 1.767a.617.617 0 00.877 0l3.478-3.509a.629.629 0 000-.883z" fill="#fff"/><path d="M18.614.542a.617.617 0 00-.818.316.627.627 0 00.314.826 5.04 5.04 0 012.957 4.596c0 2.773-2.236 5.03-4.986 5.03-2.749 0-4.986-2.257-4.986-5.03a5.045 5.045 0 012.936-4.587.627.627 0 00.31-.827.617.617 0 00-.82-.312A6.298 6.298 0 009.857 6.28c0 3.463 2.793 6.28 6.225 6.28 3.433 0 6.225-2.817 6.225-6.28A6.293 6.293 0 0018.614.542z" fill="#fff"/><path d="M16.103 0h-.022c-.342 0-.62.28-.62.625s.278.625.62.625h.019a.623.623 0 00.62-.622.622.622 0 00-.617-.628zm.416 28.433a.621.621 0 00-.438-.183.622.622 0 00-.62.625.622.622 0 00.62.625.621.621 0 00.62-.625.632.632 0 00-.182-.442z" fill="#fff"/></svg>
